img/logo.svg

<svg width="145" height="50" viewBox="0 0 145 50" fill="none" xmlns="http://www.w3.org/2000/svg">
<path d="M46.7956 32.0322C45.5619 30.8831 44.9065 29.2906 44.8324 27.2563L44.8042 26.1264L44.8324 24.9965C44.908 22.9622 45.5619 21.3697 46.7956 20.2206C48.0292 19.0714 49.6825 18.4961 51.7554 18.4961C53.2441 18.4961 54.5015 18.76 55.5276 19.2879C56.5536 19.8157 57.3173 20.4608 57.8169 21.2229C58.3166 21.9865 58.585 22.716 58.6221 23.4129C58.6414 23.6012 58.5791 23.7614 58.4382 23.8933C58.2974 24.0253 58.1313 24.0906 57.943 24.0906H55.4282C55.2206 24.0906 55.0694 24.0476 54.976 23.963C54.8811 23.8785 54.7877 23.7228 54.6928 23.4975C54.4095 22.7813 54.0374 22.2638 53.5762 21.9435C53.1136 21.6232 52.5264 21.4631 51.8103 21.4631C50.8494 21.4631 50.1006 21.7641 49.5639 22.3676C49.0271 22.9711 48.7395 23.8933 48.7024 25.1374L48.6742 26.1827L48.7024 27.1154C48.8151 29.5649 49.8515 30.7897 51.8103 30.7897C52.5457 30.7897 53.1388 30.634 53.5911 30.3241C54.0433 30.0127 54.411 29.4908 54.6928 28.7553C54.7684 28.5477 54.8573 28.398 54.9611 28.3031C55.0649 28.2097 55.2206 28.1622 55.4267 28.1622H57.9415C58.1298 28.1622 58.2944 28.2289 58.4367 28.3594C58.5776 28.4914 58.6384 28.6516 58.6206 28.8399C58.582 29.4997 58.3196 30.2099 57.8288 30.9735C57.338 31.7372 56.5848 32.3911 55.5676 32.9382C54.5504 33.4839 53.2782 33.7582 51.7524 33.7582C49.6825 33.7552 48.0292 33.1814 46.7956 32.0322Z" fill="#00DAD0"/>
<path d="M62.919 32.0624C61.9196 30.9325 61.4214 29.3771 61.4214 27.3991V19.4589C61.4214 19.2513 61.4866 19.0867 61.6186 18.9651C61.7506 18.842 61.9107 18.7812 62.099 18.7812H64.642C64.8303 18.7812 64.9904 18.848 65.1224 18.9785C65.2543 19.1104 65.3196 19.2706 65.3196 19.4589V27.2301C65.3196 29.5476 66.3279 30.7057 68.3429 30.7057C69.3216 30.7057 70.1 30.3943 70.6739 29.773C71.2477 29.1517 71.5353 28.3036 71.5353 27.2301V19.4589C71.5353 19.2513 71.6006 19.0867 71.7325 18.9651C71.8645 18.842 72.0247 18.7812 72.213 18.7812H74.7277C74.9353 18.7812 75.0999 18.842 75.2215 18.9651C75.3446 19.0882 75.4054 19.2528 75.4054 19.4589V32.7978C75.4054 32.9861 75.3446 33.1463 75.2215 33.2783C75.0984 33.4102 74.9339 33.4755 74.7277 33.4755H72.382C72.1937 33.4755 72.0336 33.4102 71.9016 33.2783C71.7696 33.1463 71.7044 32.9861 71.7044 32.7978V31.6398C70.6679 33.0529 69.1051 33.7587 67.0129 33.7587C65.2825 33.7572 63.9169 33.1923 62.919 32.0624Z" fill="#00DAD0"/>
<path d="M79.3593 38.6587C79.2274 38.5356 79.1606 38.371 79.1606 38.1649V19.4569C79.1606 19.2493 79.2259 19.0847 79.3593 18.9631C79.4913 18.8401 79.6515 18.7793 79.8398 18.7793H82.101C82.3086 18.7793 82.4776 18.846 82.6096 18.9765C82.7415 19.1085 82.8068 19.2686 82.8068 19.4569V20.5868C83.8047 19.193 85.3023 18.4961 87.2996 18.4961C89.202 18.4961 90.6625 19.0936 91.6797 20.2902C92.6969 21.4868 93.244 23.0927 93.3182 25.1077C93.3375 25.3331 93.3464 25.6727 93.3464 26.1249C93.3464 26.5771 93.3375 26.9167 93.3182 27.1421C93.2618 29.1201 92.7191 30.717 91.6931 31.9314C90.6655 33.1473 89.202 33.7537 87.2981 33.7537C85.4135 33.7537 83.9722 33.085 82.9743 31.7475V38.162C82.9743 38.3696 82.9121 38.5341 82.7905 38.6557C82.6674 38.7788 82.5028 38.8396 82.2952 38.8396H79.8368C79.6515 38.8425 79.4913 38.7803 79.3593 38.6587ZM89.4481 26.973C89.4659 26.7847 89.4763 26.503 89.4763 26.1249C89.4763 25.7483 89.4659 25.4651 89.4481 25.2768C89.3162 22.7902 88.2426 21.5461 86.2261 21.5461C85.1525 21.5461 84.3519 21.8946 83.824 22.5915C83.2961 23.2884 83.0144 24.1365 82.9758 25.1344C82.9565 25.3598 82.9477 25.7186 82.9477 26.2079C82.9477 26.6987 82.9565 27.065 82.9758 27.3096C83.0129 28.2512 83.305 29.0519 83.8521 29.7117C84.3978 30.3715 85.1896 30.7007 86.2261 30.7007C88.2426 30.7037 89.3162 29.4596 89.4481 26.973Z" fill="#00DAD0"/>
<path d="M97.8854 32.0322C96.6517 30.8831 95.9964 29.2906 95.9222 27.2563L95.894 26.1264L95.9222 24.9965C95.9978 22.9622 96.6517 21.3697 97.8854 20.2206C99.119 19.0714 100.772 18.4961 102.845 18.4961C104.332 18.4961 105.591 18.76 106.617 19.2879C107.643 19.8157 108.407 20.4608 108.907 21.2229C109.406 21.9865 109.675 22.716 109.712 23.4129C109.731 23.6012 109.669 23.7614 109.528 23.8933C109.387 24.0253 109.221 24.0906 109.034 24.0906H106.519C106.312 24.0906 106.161 24.0476 106.067 23.963C105.972 23.8785 105.879 23.7228 105.784 23.4975C105.501 22.7813 105.129 22.2638 104.668 21.9435C104.205 21.6232 103.618 21.4631 102.902 21.4631C101.941 21.4631 101.192 21.7641 100.655 22.3676C100.118 22.9711 99.8308 23.8933 99.7937 25.1374L99.7655 26.1827L99.7937 27.1154C99.9064 29.5649 100.943 30.7897 102.902 30.7897C103.636 30.7897 104.23 30.634 104.682 30.3241C105.135 30.0127 105.502 29.4908 105.784 28.7553C105.86 28.5477 105.949 28.398 106.052 28.3031C106.156 28.2097 106.312 28.1622 106.518 28.1622H109.033C109.221 28.1622 109.386 28.2289 109.527 28.3594C109.667 28.4914 109.728 28.6516 109.71 28.8399C109.672 29.4997 109.409 30.2099 108.919 30.9735C108.428 31.7372 107.675 32.3911 106.657 32.9382C105.64 33.4839 104.368 33.7582 102.842 33.7582C100.772 33.7552 99.119 33.1814 97.8854 32.0322Z" fill="#00DAD0"/>
<path d="M114.009 32.0624C113.009 30.9325 112.511 29.3771 112.511 27.3991V19.4589C112.511 19.2513 112.576 19.0867 112.708 18.9651C112.84 18.842 113.001 18.7812 113.189 18.7812H115.732C115.92 18.7812 116.08 18.848 116.212 18.9785C116.344 19.1104 116.409 19.2706 116.409 19.4589V27.2301C116.409 29.5476 117.418 30.7057 119.433 30.7057C120.411 30.7057 121.188 30.3943 121.764 29.773C122.337 29.1517 122.625 28.3036 122.625 27.2301V19.4589C122.625 19.2513 122.69 19.0867 122.822 18.9651C122.954 18.842 123.114 18.7812 123.303 18.7812H125.818C126.025 18.7812 126.19 18.842 126.311 18.9651C126.433 19.0882 126.495 19.2528 126.495 19.4589V32.7978C126.495 32.9861 126.433 33.1463 126.311 33.2783C126.188 33.4102 126.024 33.4755 125.818 33.4755H123.472C123.283 33.4755 123.123 33.4102 122.991 33.2783C122.859 33.1463 122.794 32.9861 122.794 32.7978V31.6398C121.758 33.0529 120.195 33.7587 118.103 33.7587C116.374 33.7572 115.008 33.1923 114.009 32.0624Z" fill="#00DAD0"/>
<path d="M130.456 38.6587C130.324 38.5356 130.257 38.371 130.257 38.1649V19.4569C130.257 19.2493 130.323 19.0847 130.456 18.9631C130.588 18.8401 130.748 18.7793 130.936 18.7793H133.198C133.405 18.7793 133.574 18.846 133.706 18.9765C133.838 19.1085 133.903 19.2686 133.903 19.4569V20.5868C134.901 19.193 136.399 18.4961 138.396 18.4961C140.299 18.4961 141.759 19.0936 142.776 20.2902C143.793 21.4868 144.339 23.0927 144.415 25.1077C144.434 25.3331 144.443 25.6727 144.443 26.1249C144.443 26.5771 144.434 26.9167 144.415 27.1421C144.358 29.1201 143.816 30.717 142.79 31.9314C141.762 33.1473 140.299 33.7537 138.395 33.7537C136.51 33.7537 135.069 33.085 134.071 31.7475V38.162C134.071 38.3696 134.009 38.5341 133.887 38.6557C133.764 38.7788 133.599 38.8396 133.392 38.8396H130.936C130.748 38.8425 130.588 38.7803 130.456 38.6587ZM140.545 26.973C140.563 26.7847 140.573 26.503 140.573 26.1249C140.573 25.7483 140.563 25.4651 140.545 25.2768C140.413 22.7902 139.339 21.5461 137.323 21.5461C136.249 21.5461 135.448 21.8946 134.921 22.5915C134.393 23.2884 134.111 24.1365 134.072 25.1344C134.053 25.3598 134.044 25.7186 134.044 26.2079C134.044 26.6987 134.053 27.065 134.072 27.3096C134.11 28.2512 134.402 29.0519 134.949 29.7117C135.494 30.3715 136.286 30.7007 137.323 30.7007C139.338 30.7037 140.413 29.4596 140.545 26.973Z" fill="#00DAD0"/>
<path d="M21.0656 8.43266L20.9396 10.0222C20.8728 10.8688 21.3933 11.6636 22.2058 11.9097C28.5802 13.8388 33.1531 19.9567 32.6949 27.0487C32.2086 34.5827 26.1752 40.5048 18.6339 40.8592C10.151 41.2566 3.1227 34.4714 3.1227 26.0746C3.1227 19.4036 7.5606 13.7543 13.6384 11.9112C14.4599 11.6621 14.9952 10.8733 14.927 10.0177L14.8009 8.42969C6.40256 9.91245 0 17.2566 0 26.0746C0 36.2834 8.58074 44.5275 18.9082 43.973C27.9204 43.4881 35.6545 35.4827 35.8443 26.4601C36.0341 17.4775 29.5767 9.94507 21.0656 8.43266Z" fill="#00DAD0"/>
<path d="M17.9328 30.877C18.0055 30.877 18.0766 30.8755 18.1493 30.8726C20.4535 30.7703 22.3781 28.9598 22.6124 26.6645C22.8556 24.2802 21.0941 22.6299 19.1353 21.5267C18.7216 21.2939 18.3821 20.9766 18.4192 20.5036L19.8693 1.80303V1.78969C19.8219 0.468554 18.7928 0 17.9254 0C17.0595 0 16.0304 0.468554 15.9815 1.78969V1.80303L17.4316 20.5036C17.4687 20.9766 17.1292 21.2939 16.7155 21.5267C14.7552 22.6299 12.9952 24.2802 13.2384 26.6645C13.4727 28.9583 15.3973 30.7688 17.7015 30.8726C17.7742 30.8755 17.8468 30.877 17.918 30.877H17.9328Z" fill="#00DAD0"/>
</svg>

<svg fill="none" xmlns="http://www.w3.org/2000/svg" viewBox="0 0 145 50"><path d="M46.8 32.03c-1.24-1.15-1.9-2.74-1.97-4.77l-.03-1.13.03-1.13c.08-2.04.73-3.63 1.97-4.78 1.23-1.15 2.88-1.72 4.96-1.72 1.48 0 2.74.26 3.77.79a5.85 5.85 0 0 1 2.29 1.93c.5.77.77 1.5.8 2.2a.55.55 0 0 1-.18.47.7.7 0 0 1-.5.2h-2.51c-.2 0-.36-.04-.45-.13-.1-.08-.2-.24-.29-.46a3.3 3.3 0 0 0-1.11-1.56 3.03 3.03 0 0 0-1.77-.48c-.96 0-1.7.3-2.25.9-.53.61-.82 1.53-.86 2.78l-.03 1.04.03.94c.12 2.44 1.15 3.67 3.11 3.67a3.1 3.1 0 0 0 1.78-.47c.45-.3.82-.83 1.1-1.56.08-.21.17-.36.27-.46.1-.09.26-.14.47-.14h2.51c.19 0 .35.07.5.2.14.13.2.3.18.48a4.5 4.5 0 0 1-.8 2.13 5.95 5.95 0 0 1-2.25 1.97 8 8 0 0 1-3.82.82c-2.07 0-3.72-.58-4.95-1.73Z" fill="#00DAD0"/><path d="M62.92 32.06c-1-1.13-1.5-2.68-1.5-4.66v-7.94c0-.2.07-.37.2-.5.13-.12.3-.18.48-.18h2.54c.19 0 .35.07.48.2s.2.3.2.48v7.77c0 2.32 1 3.48 3.02 3.48.98 0 1.76-.32 2.33-.94a3.6 3.6 0 0 0 .87-2.54v-7.77c0-.2.06-.37.2-.5.12-.12.28-.18.47-.18h2.52c.2 0 .37.06.5.19.11.12.18.28.18.49V32.8c0 .19-.07.35-.19.48a.64.64 0 0 1-.5.2h-2.34a.65.65 0 0 1-.48-.2.65.65 0 0 1-.2-.48v-1.16c-1.03 1.41-2.6 2.12-4.69 2.12-1.73 0-3.1-.57-4.1-1.7Z" fill="#00DAD0"/><path d="M79.36 38.66a.64.64 0 0 1-.2-.5v-18.7c0-.21.07-.38.2-.5s.3-.18.48-.18h2.26c.2 0 .38.07.51.2s.2.29.2.48v1.13c1-1.4 2.5-2.1 4.49-2.1 1.9 0 3.36.6 4.38 1.8a7.65 7.65 0 0 1 1.64 4.82 13.12 13.12 0 0 1 0 2.03 7.52 7.52 0 0 1-1.63 4.8c-1.02 1.2-2.49 1.81-4.4 1.81a5.07 5.07 0 0 1-4.32-2v6.41c0 .21-.06.37-.18.5a.67.67 0 0 1-.5.18h-2.45a.67.67 0 0 1-.48-.18Zm10.09-11.69a9.69 9.69 0 0 0 0-1.7c-.13-2.48-1.2-3.72-3.22-3.72-1.08 0-1.88.34-2.4 1.04-.53.7-.82 1.55-.85 2.54a15.4 15.4 0 0 0 0 2.18c.03.94.33 1.74.87 2.4.55.66 1.34 1 2.38 1 2.01 0 3.09-1.25 3.22-3.74Z" fill="#00DAD0"/><path d="M97.89 32.03c-1.24-1.15-1.9-2.74-1.97-4.77l-.03-1.13.03-1.13c.08-2.04.73-3.63 1.97-4.78 1.23-1.15 2.88-1.72 4.95-1.72 1.5 0 2.75.26 3.78.79a5.85 5.85 0 0 1 2.29 1.93c.5.77.77 1.5.8 2.2a.55.55 0 0 1-.18.47.7.7 0 0 1-.5.2h-2.51c-.2 0-.36-.04-.45-.13-.1-.08-.2-.24-.29-.46a3.3 3.3 0 0 0-1.11-1.56 3.03 3.03 0 0 0-1.77-.48c-.96 0-1.7.3-2.25.9-.53.61-.82 1.53-.86 2.78l-.02 1.04.02.94c.12 2.44 1.15 3.67 3.11 3.67a3.1 3.1 0 0 0 1.78-.47c.45-.3.82-.83 1.1-1.56.08-.21.17-.36.27-.46.1-.09.26-.14.47-.14h2.51a.7.7 0 0 1 .5.2c.14.13.2.3.18.48a4.5 4.5 0 0 1-.8 2.13 5.95 5.95 0 0 1-2.25 1.97 8 8 0 0 1-3.82.82c-2.07 0-3.72-.58-4.95-1.73Z" fill="#00DAD0"/><path d="M114 32.06c-1-1.13-1.49-2.68-1.49-4.66v-7.94c0-.2.07-.37.2-.5.13-.12.3-.18.48-.18h2.54c.19 0 .35.07.48.2s.2.3.2.48v7.77c0 2.32 1 3.48 3.02 3.48.98 0 1.76-.32 2.33-.94a3.6 3.6 0 0 0 .86-2.54v-7.77c0-.2.07-.37.2-.5.13-.12.3-.18.48-.18h2.52c.2 0 .37.06.5.19.11.12.18.28.18.49V32.8c0 .19-.07.35-.19.48a.64.64 0 0 1-.5.2h-2.34a.65.65 0 0 1-.48-.2.65.65 0 0 1-.2-.48v-1.16c-1.03 1.41-2.6 2.12-4.69 2.12a5.2 5.2 0 0 1-4.1-1.7Z" fill="#00DAD0"/><path d="M130.46 38.66a.64.64 0 0 1-.2-.5v-18.7c0-.21.06-.38.2-.5.13-.12.29-.18.48-.18h2.26c.2 0 .37.07.5.2.14.13.2.29.2.48v1.13c1-1.4 2.5-2.1 4.5-2.1 1.9 0 3.36.6 4.38 1.8a7.66 7.66 0 0 1 1.63 4.82 13.3 13.3 0 0 1 0 2.03 7.52 7.52 0 0 1-1.62 4.8c-1.03 1.2-2.5 1.81-4.4 1.81a5.07 5.07 0 0 1-4.32-2v6.41c0 .21-.06.37-.18.5a.67.67 0 0 1-.5.18h-2.45a.67.67 0 0 1-.48-.18Zm10.08-11.69a9.62 9.62 0 0 0 0-1.7c-.13-2.48-1.2-3.72-3.22-3.72-1.07 0-1.87.34-2.4 1.04-.53.7-.8 1.55-.85 2.54a15.6 15.6 0 0 0 0 2.18c.04.94.33 1.74.88 2.4.54.66 1.34 1 2.37 1 2.02 0 3.1-1.25 3.22-3.74Z" fill="#00DAD0"/><path d="m21.07 8.43-.13 1.6c-.07.84.45 1.63 1.27 1.88a14.82 14.82 0 0 1 10.48 15.14 14.75 14.75 0 0 1-14.06 13.8 14.82 14.82 0 0 1-15.5-14.78c0-6.67 4.43-12.32 10.5-14.16a1.83 1.83 0 0 0 1.3-1.9l-.13-1.58A17.95 17.95 0 0 0 0 26.07c0 10.21 8.58 18.46 18.9 17.9 9.02-.48 16.75-8.49 16.94-17.51A17.95 17.95 0 0 0 21.07 8.43Z" fill="#00DAD0"/><path d="M17.93 30.88h.22a4.72 4.72 0 0 0 4.46-4.22c.25-2.38-1.52-4.03-3.47-5.13-.42-.24-.76-.55-.72-1.03l1.45-18.7V1.8C19.82.47 18.79 0 17.93 0c-.87 0-1.9.47-1.95 1.79v.01l1.45 18.7c.04.48-.3.8-.71 1.03-1.96 1.1-3.72 2.75-3.48 5.13a4.73 4.73 0 0 0 4.68 4.22h.01Z" fill="#00DAD0"/></svg>
